local/share/icons/dracula-icons-main/16/mimetypes/application-vnd.appimage.svg

<?xml version="1.0" encoding="UTF-8" standalone="no"?>
<svg
   xmlns="http://www.w3.org/2000/svg"
   width="16"
   height="16"
   viewBox="0 0 16 16">
  <rect
     style="fill:none;fill-opacity:1;stroke:#209ae7;stroke-width:0.94488192;stroke-linecap:round;stroke-linejoin:round;stroke-miterlimit:4;stroke-dasharray:none;stroke-dashoffset:0;stroke-opacity:1"
     y="2.4724407"
     x="2.472441"
     ry="0.63275403"
     rx="0.63275403"
     height="11.055118"
     width="11.055118" />
  <path
     style="display:inline;overflow:visible;visibility:visible;fill:#209ae7;fill-opacity:1;fill-rule:nonzero;stroke:none;stroke-width:0.30053622;marker:none;enable-background:accumulate"
     d="m 7.0999784,3.2097236 v 1.800007 h -0.956246 l 1.856242,2.100009 1.856243,-2.100009 h -0.956246 v -1.800007 z" />
  <path
     d="m 7.6718764,7.4097416 c -0.05187,0 -0.08437,0.08847 -0.08437,0.196875 v 0.68438 c -0.208817,0.04755 -0.405463,0.13271 -0.581249,0.243749 l -0.487497,-0.4875 c -0.07666,-0.07666 -0.1602,-0.111678 -0.196875,-0.07501 l -0.459373,0.459377 c -0.03668,0.03667 -0.0017,0.120227 0.075,0.196876 l 0.487498,0.487502 c -0.111038,0.175789 -0.196199,0.372439 -0.243748,0.581253 h -0.684372 c -0.108397,0 -0.196874,0.03252 -0.196874,0.08438 v 0.6562534 c 0,0.05187 0.08848,0.08438 0.196874,0.08438 h 0.684373 c 0.04755,0.208816 0.13271,0.405466 0.243748,0.581254 l -0.487498,0.487501 c -0.07664,0.07666 -0.111676,0.160201 -0.075,0.196876 l 0.459373,0.459378 c 0.03667,0.03668 0.120224,0.0017 0.196875,-0.075 l 0.487498,-0.487504 c 0.175785,0.111041 0.372433,0.196202 0.581248,0.243751 v 0.684378 c 0,0.108398 0.03252,0.196876 0.08438,0.196876 h 0.656247 c 0.05186,0 0.08438,-0.08847 0.08438,-0.196876 v -0.684378 c 0.208815,-0.04755 0.405464,-0.132711 0.581248,-0.243751 l 0.487498,0.487503 c 0.07665,0.07666 0.160199,0.111676 0.196874,0.075 L 10.137508,11.78789 c 0.03667,-0.03667 0.0017,-0.120226 -0.075,-0.196877 L 9.5749914,11.103511 c 0.111038,-0.175788 0.1962,-0.372438 0.243748,-0.581254 h 0.6843726 c 0.108397,0 0.196872,-0.03252 0.196872,-0.08438 V 9.7816236 c 0,-0.05186 -0.08847,-0.08438 -0.196872,-0.08438 H 9.8187374 c -0.04755,-0.208814 -0.132709,-0.405464 -0.243748,-0.581251 l 0.4874976,-0.487503 c 0.07665,-0.07666 0.111677,-0.160198 0.07501,-0.196876 L 9.6781254,7.9722366 c -0.03667,-0.03667 -0.120224,-0.0017 -0.196873,0.07501 l -0.487499,0.4875 c -0.175793,-0.111042 -0.372441,-0.196205 -0.581258,-0.243752 v -0.68438 c 0,-0.108399 -0.03252,-0.196875 -0.08438,-0.196875 z m 0.328124,1.865633 c 0.45858,0 0.834368,0.375792 0.834368,0.8343774 0,0.458588 -0.375789,0.834379 -0.834368,0.834379 -0.458583,0 -0.834373,-0.375791 -0.834373,-0.834379 0,-0.4585854 0.37579,-0.8343774 0.834373,-0.8343774 z"
     style="display:inline;overflow:visible;visibility:visible;fill:#209ae7;fill-opacity:1;fill-rule:nonzero;stroke:none;stroke-width:0.30053622;marker:none;enable-background:accumulate" />
</svg>

<?xml version="1.0" encoding="UTF-8"?>
<svg xmlns="http://www.w3.org/2000/svg" xmlns:xlink="http://www.w3.org/1999/xlink" width="16" height="16" viewBox="0 0 16 16">
<path fill="none" stroke-width="0.944882" stroke-linecap="round" stroke-linejoin="round" stroke="rgb(12.54902%, 60.392157%, 90.588235%)" stroke-opacity="1" stroke-miterlimit="4" d="M 3.105469 2.472656 L 12.894531 2.472656 C 13.246094 2.472656 13.527344 2.753906 13.527344 3.105469 L 13.527344 12.894531 C 13.527344 13.246094 13.246094 13.527344 12.894531 13.527344 L 3.105469 13.527344 C 2.753906 13.527344 2.472656 13.246094 2.472656 12.894531 L 2.472656 3.105469 C 2.472656 2.753906 2.753906 2.472656 3.105469 2.472656 Z M 3.105469 2.472656 "/>
<path fill-rule="nonzero" fill="rgb(12.54902%, 60.392157%, 90.588235%)" fill-opacity="1" d="M 7.101562 3.210938 L 7.101562 5.007812 L 6.144531 5.007812 L 8 7.109375 L 9.855469 5.007812 L 8.898438 5.007812 L 8.898438 3.210938 Z M 7.101562 3.210938 "/>
<path fill-rule="nonzero" fill="rgb(12.54902%, 60.392157%, 90.588235%)" fill-opacity="1" d="M 7.671875 7.410156 C 7.621094 7.410156 7.585938 7.5 7.585938 7.605469 L 7.585938 8.289062 C 7.378906 8.339844 7.183594 8.421875 7.007812 8.535156 L 6.519531 8.046875 C 6.441406 7.96875 6.359375 7.9375 6.320312 7.972656 L 5.863281 8.429688 C 5.824219 8.46875 5.859375 8.550781 5.9375 8.628906 L 6.425781 9.117188 C 6.3125 9.292969 6.230469 9.488281 6.179688 9.695312 L 5.496094 9.695312 C 5.386719 9.695312 5.300781 9.730469 5.300781 9.78125 L 5.300781 10.4375 C 5.300781 10.488281 5.386719 10.523438 5.496094 10.523438 L 6.179688 10.523438 C 6.230469 10.730469 6.3125 10.925781 6.425781 11.101562 L 5.9375 11.589844 C 5.859375 11.667969 5.824219 11.75 5.863281 11.789062 L 6.320312 12.246094 C 6.359375 12.285156 6.441406 12.25 6.519531 12.171875 L 7.007812 11.683594 C 7.183594 11.796875 7.378906 11.882812 7.585938 11.929688 L 7.585938 12.613281 C 7.585938 12.722656 7.621094 12.808594 7.671875 12.808594 L 8.328125 12.808594 C 8.378906 12.808594 8.414062 12.722656 8.414062 12.613281 L 8.414062 11.929688 C 8.621094 11.882812 8.816406 11.796875 8.992188 11.683594 L 9.480469 12.171875 C 9.558594 12.25 9.640625 12.285156 9.679688 12.246094 L 10.136719 11.789062 C 10.175781 11.75 10.140625 11.667969 10.0625 11.589844 L 9.574219 11.101562 C 9.6875 10.925781 9.769531 10.730469 9.820312 10.523438 L 10.503906 10.523438 C 10.613281 10.523438 10.699219 10.488281 10.699219 10.4375 L 10.699219 9.78125 C 10.699219 9.730469 10.613281 9.695312 10.503906 9.695312 L 9.820312 9.695312 C 9.769531 9.488281 9.6875 9.292969 9.574219 9.117188 L 10.0625 8.628906 C 10.140625 8.550781 10.175781 8.46875 10.136719 8.429688 L 9.679688 7.972656 C 9.640625 7.9375 9.558594 7.96875 9.480469 8.046875 L 8.992188 8.535156 C 8.816406 8.421875 8.621094 8.339844 8.414062 8.289062 L 8.414062 7.605469 C 8.414062 7.5 8.378906 7.410156 8.328125 7.410156 Z M 8 9.273438 C 8.457031 9.273438 8.835938 9.652344 8.835938 10.109375 C 8.835938 10.566406 8.457031 10.945312 8 10.945312 C 7.542969 10.945312 7.164062 10.566406 7.164062 10.109375 C 7.164062 9.652344 7.542969 9.273438 8 9.273438 Z M 8 9.273438 "/>
</svg>
